usr/share/icons/biglinux-icons-material/scalable/mimetypes/application-vnd.ms-access.svg

<svg width="24" height="24" viewBox="0 0 24 24" fill="none" xmlns="http://www.w3.org/2000/svg">
<rect x="1" y="1" width="22" height="22" rx="6.6" fill="url(#paint0_radial_1_100)"/>
<path d="M12.3123 5C9.87552 5.43394 7.43745 6.00965 5.00071 6.43564C5.00071 10.1423 4.99911 13.8507 5.00071 17.559C7.4248 17.9834 9.85002 18.5496 12.2692 18.9915H12.9953V5.00002L12.3123 5ZM15.1858 6.93606C14.6194 6.94153 14.053 6.98854 13.4952 7.06537V9.1342C15.0626 9.37072 16.6967 9.32256 18.2074 8.81287C18.5272 8.67296 18.9318 8.49803 18.9984 8.10993C18.9085 7.63522 18.3757 7.45691 17.9776 7.30865C17.074 7.03278 16.1299 6.92678 15.1858 6.93606ZM18.997 8.91442C18.404 9.3908 17.6393 9.5491 16.9064 9.65738C15.7754 9.80562 14.626 9.80723 13.4951 9.66399V11.8225C14.9076 12.0041 16.3583 11.996 17.7491 11.6678C18.1755 11.5462 18.6487 11.4195 18.9469 11.0647C19.0535 10.3551 18.9604 9.63058 18.997 8.91442ZM9.4009 9.40069C9.95888 11.2662 10.4887 13.1419 11.04 15.009C10.6553 14.9841 10.2703 14.9557 9.88889 14.9207C9.78728 14.5043 9.67919 14.0879 9.56925 13.6732C9.0579 13.6715 8.54643 13.6547 8.03674 13.6297C7.93848 14.0245 7.83847 14.4176 7.73688 14.8107C7.41041 14.7857 7.08571 14.7625 6.76092 14.7409C7.24729 12.9869 7.75354 11.2397 8.23658 9.4857C8.62468 9.45739 9.01114 9.43069 9.4009 9.40069ZM8.77456 10.3986C8.66296 11.1898 8.41309 11.9509 8.24485 12.7305C8.61129 12.7337 8.97788 12.7354 9.34599 12.7371C9.15611 11.9576 8.92447 11.1881 8.77456 10.3986ZM18.9969 11.5795C18.4073 12.0543 17.6476 12.2125 16.9164 12.3208C15.7821 12.4707 14.6294 12.474 13.4951 12.3291V14.4893C14.9109 14.6692 16.3666 14.661 17.7608 14.3295C18.1855 14.2079 18.6585 14.0813 18.95 13.7249C19.0483 13.0153 18.9636 12.2942 18.9969 11.5795ZM18.9969 14.2444C18.4039 14.7191 17.6427 14.8791 16.9097 14.9857C15.7771 15.1356 14.6277 15.1389 13.4951 14.994C13.4951 15.7119 13.5002 16.4281 13.4885 17.1459C14.6777 17.3175 15.892 17.3143 17.0795 17.1327C17.7275 17.0011 18.4754 16.9062 18.9468 16.3931C19.0517 15.6836 18.962 14.9591 18.9969 14.2444Z" fill="white"/>
<defs>
<radialGradient id="paint0_radial_1_100" cx="0" cy="0" r="1" gradientUnits="userSpaceOnUse" gradientTransform="translate(17.5 1) rotate(116.565) scale(24.5967)">
<stop stop-color="#DB6F73"/>
<stop offset="1" stop-color="#B52126"/>
</radialGradient>
</defs>
</svg>

<svg xmlns="http://www.w3.org/2000/svg" width="24" height="24" fill="none"><rect width="22" height="22" x="1" y="1" fill="url(#a)" rx="6.6"/><path fill="#fff" d="M12.312 5c-2.436.434-4.875 1.01-7.311 1.436 0 3.706-.002 7.415 0 11.123 2.424.424 4.849.99 7.268 1.432h.726V5h-.683Zm2.874 1.936c-.567.006-1.133.053-1.69.13v2.068c1.567.237 3.2.189 4.711-.321.32-.14.725-.315.791-.703-.09-.475-.622-.653-1.02-.801-.904-.276-1.848-.382-2.792-.373Zm3.811 1.978c-.593.477-1.358.635-2.09.743-1.132.149-2.281.15-3.412.007v2.159c1.413.181 2.863.173 4.254-.155.427-.122.9-.248 1.198-.603.107-.71.013-1.434.05-2.15Zm-9.596.487c.558 1.865 1.088 3.74 1.639 5.608-.385-.025-.77-.053-1.151-.088-.102-.417-.21-.833-.32-1.248a33.576 33.576 0 0 1-1.532-.043c-.099.394-.199.788-.3 1.18a97.547 97.547 0 0 0-.976-.07c.486-1.753.993-3.5 1.476-5.254.388-.029.774-.055 1.164-.085Zm-.626.998c-.112.79-.362 1.552-.53 2.332.366.003.733.004 1.101.006-.19-.78-.422-1.549-.571-2.338Zm10.222 1.18c-.59.475-1.35.633-2.08.742a13.29 13.29 0 0 1-3.422.008v2.16c1.416.18 2.872.172 4.266-.16.425-.121.898-.248 1.189-.604.098-.71.014-1.43.047-2.146Zm0 2.665c-.593.475-1.354.635-2.087.742-1.133.15-2.282.153-3.415.008 0 .718.005 1.434-.006 2.152 1.189.171 2.403.168 3.59-.013.648-.132 1.396-.227 1.868-.74.105-.71.015-1.434.05-2.149Z"/><defs><radialGradient id="a" cx="0" cy="0" r="1" gradientTransform="rotate(116.565 8.441 5.908) scale(24.5967)" gradientUnits="userSpaceOnUse"><stop stop-color="#DB6F73"/><stop offset="1" stop-color="#B52126"/></radialGradient></defs></svg>
